X:1
T:Title
%%score { ( 1 3 5 ) | ( 2 4 ) }
L:1/8
Q:1/4=100
M:4/4
K:Eb
V:1 treble nm="Grand Piano"
V:3 treble 
V:5 treble 
V:2 bass 
V:4 bass 
V:1
 G>_G =G>_G =G>F E>F | G>A B>c B>G F>E | D2 [CDA]2- [CDA]>A G>F | z2 [EB]4 z2 | %4
w: Will~H.~Ruebush * * * * * * *||||
 G>_G =G>_G =G>F E>F | G>A B>c B>G F>E | D2 [CDA]2- [CDA]>[DA] [DG]>[DF] | [G,B,E]6 z2 | %8
w: ||||
 [Ge]2 z2 z z/ d/ [Ac]>G | [Ac]2 [B,GB]2- [B,GB]>[EG] [B,E_G]>[E=G] | %10
w: ||
 [B,DB]2 [B,DF]2- [B,DF]>[DA] [DG]>[DF] | [G,E]2 [B,EG]2- [B,EG]>[B,DB] [Ec]>[Ad] | z2 [Ge]4 z2 | %13
w: |||
 [Ac]2 [B,GB]2- [B,GB]>[EG] [B,E_G]>[E=G] | [B,DB]2 [B,DF]2- [B,DF]>[DA] [DG]>[DF] | [G,B,E]6 z2 |] %16
w: |||
V:2
 [E,B,E]>[E,=A,E] [E,B,E]>[E,A,E] [E,B,E]>[E,_A,E] [E,G,B,]>[E,A,B,] | %1
 [E,B,E]>[E,CE] [E,G,E]>[E,A,E] [E,G,E]>[B,E] [A,B,]>[G,B,] | [F,B,]2 B,,2 F,>[CD] [B,D]>[A,D] | %3
 [E,G,B,]2 G,2- G,>[E,_G,E] [E,=G,E]>[E,CE] | %4
 [E,B,E]>[E,=A,E] [E,B,E]>[E,A,E] [E,B,E]>[E,_A,E] [E,G,B,]>[E,A,B,] | %5
 [E,B,E]>[E,CE] [E,A,E]>[E,A,E] [E,G,E]>[B,E] [A,D]>[G,B,] | [F,B,]2 B,,2 F,>C B,>A, | %7
 E,2 B,,2 E,2 z2 | [E,B,]2 B,2- B,>[K:treble][B,B][K:bass] [B,,B,]>[B,,B,] | %9
 [E,B,]2 B,,2 z z/ B,/ z z/ B,/ | F,2 B,,2 F,>B, B,>A, | E,2 B,,2 E,>A, [G,B,]>[F,B,] | %12
 [E,B,]2 B,2- B,>[K:treble][B,B][K:bass] [B,,B,]>[B,,B,] | [E,B,]2 B,,2 z z/ B,/ z z/ B,/ | %14
 F,2 B,,2 F,>C B,>A, | E,2 B,,2 E,2 z2 |] %16
V:3
 x8 | x8 | x8 | E2 z2 E,>=A B>_A | x8 | x8 | x8 | x8 | z2 [Ge]4 z2 | x8 | x8 | x8 | %12
 [Ge]2 z2 z z/ d/ [Ac]>[GB] | x8 | x8 | x8 |] %16
V:4
 x8 | x8 | x8 | z2 B,,2 z4 | x8 | x8 | x8 | x8 | z2 B,,2 z4[K:treble][K:bass] | z4 E,2 B,,2 | x8 | %11
 x8 | z2 B,,2 z4[K:treble][K:bass] | z4 E,2 B,,2 | x8 | x8 |] %16
V:5
 x8 | x8 | x8 | x8 | x8 | x8 | x8 | x8 | z4 E,2 z2 | x8 | x8 | x8 | z4 E,2 z2 | x8 | x8 | x8 |] %16

